X:1
T:Title
%%score [ 1 2 3 4 ]
L:1/8
Q:1/4=70
M:2/4
K:A
V:1 treble nm="S"
V:2 treble nm="A"
V:3 treble-8 nm="T"
V:4 bass nm="B"
V:1
!p!"^Nicht schnell" c z/ A/ A z/ G/ | GF F2 | F>G Ac |!<(! (c/F/)!<)!!>(! (F2!>)! G) | %4
w: 1.Sah ein Knab' ein|Rös- lein steh'n,|Rös- lein auf der|Hei- * den, _|
w: 2.Kna- be sprach: ich|bre- che dich,|Rös- lein auf der|Hei- * den! _|
w: 3.Und der wil- de|Kna- be brach|'s\_Rös- lein auf der|Hei- * den; _|
 c z/ A/ A z/ G/ | GF F2 | G/A/ B2!<(! (e/g/)!<)! |!>(! g>!>)!B B2 | c>c ^A"^cresc."F | f2 B2 | %10
w: war so jung und|mor- gen- schön,|lief er schnell es _|nah' zu seh'n,|sah's mit vie- len|Freu- den,|
w: Rös- lein sprach: ich|ste- che dich,|dass du e- wig _|denkst an mich,|und ich will's nicht|lei- den,|
w: Rös- lein wehr- te|sich und stach,|half ihm doch kein _|Weh' und Ach,|musst' es e- ben|lei- den,|
!p! ^AB AB | !>!e>^A A2 |!p! ^AB A>"^cresc."B | e2 =A2 | f>d dc | B2 A2 :| %16
w: ||||1.sah's mit vie- len|Freu- den.|
w: Rös- lein, Rös- lein,|Rös- lein rot,|Rös- lein auf der|Hei- den,|2.und ich will's nicht|lei- den.|
w: ||||3.musst' es e- ben|lei- den!|
V:2
!p! E z/ E/ E z/ E/ | EE E2 | ^D>D DD |!<(! ^D!<)!!>(! (D2!>)! E) | E z/ E/ E z/ E/ | EE E2 | %6
w: 1.Sah ein Knab' ein|Rös- lein steh'n,|Rös- lein auf der|Hei- den, _|war so jung und|mor- gen- schön,|
w: 2.Kna- be sprach: ich|bre- che dich,|Rös- lein auf der|Hei- den! _|Rös- lein sprach: ich|ste- che dich,|
w: 3.Und der wil- de|Kna- be brach|'s\_Rös- lein auf der|Hei- den; _|Rös- lein wehr- te|sich und stach,|
 E/E/ E2!<(! G!<)! |!>(! G>!>)!G G2 | ^A>A F"^cresc."F | F2 F2 |!p! ^^FG FG | !>!^^F>F F2 | %12
w: lief er schnell es|nah' zu seh'n,|sah's mit vie- len|Freu- den,|||
w: dass du e- wig|denkst an mich,|und ich will's nicht|lei- den,|Rös- lein, Rös- lein,|Rös- lein rot,|
w: half ihm doch kein|Weh' und Ach,|musst' es e- ben|lei- den,|||
!p! ^^FG F>"^cresc."G | =G2 G2 | F>F FF | ^G2 A2 :| %16
w: ||1.sah's mit vie- len|Freu- den.|
w: Rös- lein auf der|Hei- den,|2.und ich will's nicht|lei- den.|
w: ||3.musst' es e- ben|lei- den!|
V:3
!p! c z/ c/ c z/ c/ | cc (c=c) | B>B BB |!<(! B!<)!!>(! (B2!>)! =d) | ^c z/ c/ c z/ c/ | cc (c=c) | %6
w: 1.Sah ein Knab' ein|Rös- lein steh'n, _|Rös- lein auf der|Hei- den, _|war so jung und|mor- gen- schön, _|
w: 2.Kna- be sprach: ich|bre- che dich, _|Rös- lein auf der|Hei- den! _|Rös- lein sprach: ich|ste- che dich, _|
w: 3.Und der wil- de|Kna- be brach _|'s\_Rös- lein auf der|Hei- den; _|Rös- lein wehr- te|sich und stach, _|
 B/A/ G2!<(! (B/e/)!<)! |!>(! e>!>)!e e2 | ^c>c c"^cresc."e | =d2 d2 |!p! cd cd | !>!c>c c2 | %12
w: lief er schnell es _|nah' zu seh'n,|sah's mit vie- len|Freu- den,|||
w: dass du e- wig _|denkst an mich,|und ich will's nicht|lei- den,|Rös- lein, Rös- lein,|Rös- lein rot,|
w: half ihm doch kein _|Weh' und Ach,|musst' es e- ben|lei- den,|||
!p! cd c>"^cresc."d | c2 c2 | A>A (A/B/) (c/e/) | d2 c2 :| %16
w: ||1.sah's mit vie- * len *|Freu- den.|
w: Rös- lein auf der|Hei- den,|2.und ich will's * nicht *|lei- den.|
w: ||3.musst' es e- * ben *|lei- den!|
V:4
!p! A, z/ A,/ A, z/ A,/ | A,A, A,2 | A,>G, F,A, |!<(! A,!<)!!>(! A,3!>)! | A, z/ A,/ A, z/ A,/ | %5
w: 1.Sah ein Knab' ein|Rös- lein steh'n,|Rös- lein auf der|Hei- den,|war so jung und|
w: 2.Kna- be sprach: ich|bre- che dich,|Rös- lein auf der|Hei- den!|Rös- lein sprach: ich|
w: 3.Und der wil- de|Kna- be brach|'s\_Rös- lein auf der|Hei- den;|Rös- lein wehr- te|
 A,A, A,2 | G,/F,/ E,2!<(! E,!<)! |!>(! E,>!>)!E, E,2 | E,>E, E,"^cresc."E, | E,2 E,2 | %10
w: mor- gen- schön,|lief er schnell es|nah' zu seh'n,|sah's mit vie- len|Freu- den,|
w: ste- che dich,|dass du e- wig|denkst an mich,|und ich will's nicht|lei- den,|
w: sich und stach,|half ihm doch kein|Weh' und Ach,|musst' es e- ben|lei- den,|
!p! E,E, E,E, | !>!E,>E, E,2 |!p! E,E, E,"^cresc."E, | A,2 A,2 | D,>D, D,B,, | E,2 A,2 :| %16
w: ||||1.sah's mit vie- len|Freu- den.|
w: Rös- lein, Rös- lein,|Rös- lein rot,|Rös- lein auf der|Hei- den,|2.und ich will's nicht|lei- den.|
w: ||||3.musst' es e- ben|lei- den!|

